X:383
T:
R:polska
S:Efter »Florsen» i Burs.
O:Gotland, Burs
M:3/4
L:1/16
K:D
FDEF GABc d2ef|g2ag fedc c2d2|dBGB BAFA AGEG|FGFE DEFD A,4|FDEF GABc d2ef|
g2ag fedc c2d2|Lb4 La4 Lg4|fedc c4 d4::LA,4 A,2CE GECA,|A,2D2 FDFA dAFD|
LA,4 A,2CE GECA,|A,2D2 FDFA dAFD|FDEF GABc d2ef|g2ag fedc c2d2|
Lb2b2 La2a2 Lg2g2|fedc c4 d4:|

